; generated by Slic3r 1.3.0 on 2019-07-10 at 20:55:32

; Print Config Notes: 
; ; On ender-3 we can go a tiny but faster, but not much
; 
; Printer Config Notes: 
; Don’t remove the following keywords! These keywords are used in the “compatible printer” condition of the print and filament profiles to link the particular print and filament profiles to this printer profile.
; PRINTER_VENDOR_CREALITY
; PRINTER_MODEL_ENDER3
; PRINTER_HAS_BOWDEN
; PRINTER_NOT_VOLCANO
; 
; external perimeters extrusion width = 0.44mm (2.08mm^3/s)
; perimeters extrusion width = 0.56mm (6.73mm^3/s)
; infill extrusion width = 0.50mm (6.71mm^3/s)
; solid infill extrusion width = 0.56mm (7.57mm^3/s)
; top infill extrusion width = 0.56mm (3.78mm^3/s)

M107
; Creality Ender-3 BL Touch

G21 ; metric values
G90 ; absolute positioning
M82; set extruder to absolute mode
M220 S100; Set to 100% speed

; Ender 3 specific 
M201 X1000 Y1000 E5000 Z100 ; Acceleration http://marlinfw.org/docs/gcode/M201.html
M203 X500 Y500 Z5 E25 ; sets maximum feedrates, mm/sec
M204 S500 T500 ; sets acceleration (S) and retract acceleration (T)
M205 J0.1 ; Junction deviation http://marlinfw.org/docs/gcode/M205.html
M205 S0 T0 ; sets the minimum extruding and travel feed rate, mm/sec

;preheat the bed and nozzle during homing and bed leveling
M117 Pre Heating 
M140 S40 ; set bed temp

G4 S2        ; Dwell for 2 seconds then home the bed
M117 Homing; Put printing message on LCD screen
M851 Z-2.85 ; Probe offset -2.7mm
G28;	

; Wait for the bed to be on temp, then level the bed at 40 degrees and turn on preheat nozzle
M117 Wait bed 40
M190 S40 ; wait for bed temp

M104 S150 ; set extruder temp preheat

M117 Probe bed
G29           ; Bed Level (P option does not work)
M420 Z5 ; fade hight

; Set the nozzle high enough so we can take a peek at it and wait for nozzle and bed to be on temperature
G1 X117 Y117 Z40 ; Set bed a bit higher and centered so we can clearly see the nozzle etc.

; Set working temperatures
M117 Heating ; Put printing message on LCD screen
M104 S205 ; set extruder temp
M140 S40 ; set bed temp

M190 S40 ; wait for bed temp
M109 S205 ; wait for extruder temp


;;;;;;;;;;;;;;;;;;;;;;;;;;;;;;;;;;;;
; Prepare nozzle
G1 X5 Y5 Z10 ; 
G92 E0 ; Set extrusion distance to 0
G92 E0 ; Set extrusion distance to 0
G1 F1800 E3;
G92 E0 ; Set extrusion distance to 0
G90;


; You may want to adjust the X and Y here so the nozzle is really above the bed!
G1 X5.0 Y5.0 F7200 ; Move to a position in the left front of the bed
G1 Z0.6; Move nozzle above 0.6 mm of the bed

G91 ; Use relative mode
; Make some jerky zick-zack move at the beginning
; This is supposed to get rid of residue at the nozzle
G1 X1.0 Y5.0 Z-0.1 E-1.0 F7200 ; X6 Y10 Z0.1, retract a tiny bit / 120mm/s
G1 X1.0 Y-5.0 Z0.1 E2.0 F7200 ; X7 Y5 Z0.2 extrude a tiny bit
G1 X2.0 Y5.0 Z-0.1 F7200 ; X9 Y10 Z0.1
G1 X2.0 Y-5.0 Z0.1 F7200 ; X11 Y5 Z0.2
G1 X2.0 Y5.0 F7200 ; X13 Y10
G1 X2.0 Y-5.0 F7200 ; X15 Y5

; now print a line of filament to prepare extrusion
G1 Y50 E20 F1000 ; prints a line in the front
G1 Y50 E40 F1000 ; prints a line in the front

; Done with the dancing :)
G92 E0 ; Set extrusion distance to 0
G90 ; switch back to absolute mode
G1 Z10; Move nozzle above 10 mm of the bed
;;;;;;;;;;;;;;;;;;;;;;;;;;;;;;;;;;;;


; Start of actual GCode for the print
M117 Flexi-Rex-improved ; display printed file on LCD

;END gcode for filament
M900 K0.67
G21 ; set units to millimeters
G90 ; use absolute coordinates
M82 ; use absolute distances for extrusion
G92 E0
;BEFORE_LAYER_CHANGE
;Layer 0
;0.2mm
;Printing layer 0 at 0.2mm

; M220 S50

G1 Z0.200 F7800.000
G1 E-6.80000 F3600.00000
G92 E0
G1 X68.180 Y72.732 F7800.000
G1 E6.80000 F3600.00000
M201 X1250 Y1250
M204 P1250 T1250
G1 F1800
G1 X69.619 Y72.281 E6.86482
G1 X116.217 Y72.281 E8.86832
G1 X117.566 Y72.673 E8.92873
G1 X118.535 Y73.817 E8.99321
G1 X132.188 Y106.097 E10.50010
G1 X132.382 Y106.920 E10.53649
G1 X132.899 Y115.199 E10.89313
G1 X132.895 Y115.567 E10.90897
G1 X132.199 Y123.822 E11.26514
G1 X131.695 Y125.134 E11.32555
G1 X130.974 Y125.776 E11.36708
G1 X128.301 Y127.360 E11.50067
G1 X126.326 Y127.615 E11.58626
G1 X104.874 Y121.488 E12.54551
G1 X103.626 Y120.672 E12.60960
G1 X68.144 Y77.797 E15.00241
G1 X67.754 Y77.146 E15.03506
G1 X67.235 Y75.879 E15.09389
G1 X67.244 Y73.953 E15.17672
G1 X67.297 Y73.825 E15.18269
G1 X68.143 Y72.779 E15.24052
G1 F6240
G1 X69.619 Y72.281 E14.38670
G1 F6240
G1 X78.415 Y72.281 E9.56565
G1 F6240
G1 X78.415 Y72.281 E9.56564
G1 F6240
G1 X79.847 Y72.281 E8.78052
G1 E8.44052 F3600.00000
G92 E0
G1 X109.188 Y116.956 F7800.000
G1 E6.80000 F3600.00000
G1 F1800
G1 X109.528 Y117.117 E6.80493
G1 F1800
G1 X109.721 Y117.205 E6.80642
G1 F1800
G1 X110.580 Y117.421 E6.81738
G1 X110.977 Y117.479 E6.82234
G1 F6240
G1 X110.580 Y117.421 E6.60261
G1 F6240
G1 X109.721 Y117.205 E6.11700
G1 E0.02234 F3600.00000
G92 E0
G1 X112.675 Y120.402 F7800.000
G1 E6.80000 F3600.00000
G1 F1800
G1 X107.367 Y118.886 E6.81764
G1 F6240
G1 X112.675 Y120.402 E3.79225
G1 E0.01764 F3600.00000
G92 E0
G1 X106.714 Y116.119 F7800.000
G1 E6.80000 F3600.00000
G1 F1800
G1 X106.951 Y115.882 E6.81564
G1 X107.144 Y115.206 E6.84852
G1 X107.103 Y114.986 E6.85900
G1 X106.566 Y115.523 E6.89450
G1 X106.419 Y114.926 E6.92323
G1 X107.252 Y114.093 E6.97836
G1 X107.361 Y113.565 E7.00353
G1 X107.986 Y112.614 E7.05676
G1 X106.271 Y114.330 E7.17021
G1 X106.123 Y113.734 E7.19894
G1 X110.195 Y109.661 E7.46822
G1 X110.124 Y109.687 E7.47177
G1 X109.481 Y109.631 E7.50193
G1 X105.975 Y113.137 E7.73378
G1 X105.827 Y112.541 E7.76251
G1 X108.868 Y109.500 E7.96361
G1 X108.464 Y109.160 E7.98831
G1 X105.679 Y111.945 E8.17243
G1 X105.532 Y111.348 E8.20115
G1 X108.059 Y108.821 E8.36829
G1 X107.967 Y108.743 E8.37393
G1 X107.813 Y108.323 E8.39485
G1 X105.384 Y110.752 E8.55546
G1 X105.236 Y110.155 E8.58419
G1 X107.613 Y107.778 E8.74138
G1 X107.413 Y107.234 E8.76850
G1 X105.088 Y109.559 E8.92226
G1 X104.940 Y108.963 E8.95099
G1 X107.095 Y106.808 E9.09349
G1 X105.925 Y107.234 E9.15174
G1 X104.792 Y108.366 E9.22662
G1 X104.645 Y107.770 E9.25535
G1 X104.754 Y107.660 E9.26262
G1 F6240
G1 X104.645 Y107.770 E9.17745
G1 F6240
G1 X104.792 Y108.366 E8.84070
G1 F6240
G1 X105.925 Y107.234 E7.96292
G1 F6240
G1 X107.095 Y106.808 E7.28022
G1 F6240
G1 X104.940 Y108.963 E5.60983
G1 F6240
G1 X105.088 Y109.559 E5.27308
G1 F6240
G1 X107.413 Y107.234 E3.47077
G1 F6240
G1 X107.613 Y107.778 E3.15288
G1 F6240
G1 X107.161 Y108.230 E2.80262
G1 E2.46262 F3600.00000
G92 E0
G1 X107.877 Y112.724 F7800.000
G1 E6.80000 F3600.00000
G1 F1800
G1 X108.009 Y112.522 E6.81128
G1 X108.226 Y112.374 E6.82356
G1 X111.360 Y109.241 E7.03079
G1 X112.525 Y108.820 E7.08871
G1 X109.740 Y111.605 E7.27290
G1 F6240
G1 X112.525 Y108.820 E5.11394
G1 F6240
G1 X111.360 Y109.241 E4.43505
G1 F6240
G1 X108.226 Y112.374 E2.00597
G1 F6240
G1 X108.009 Y112.522 E1.86207
G1 F6240
G1 X107.877 Y112.724 E1.72981
G1 E0.47290 F3600.00000
G92 E0
G1 X114.377 Y104.735 F7800.000
G1 E6.80000 F3600.00000
G1 F1800
G1 X113.932 Y105.181 E6.82948
G1 X114.130 Y105.726 E6.85662
G1 X114.434 Y105.422 E6.87674
G1 X114.492 Y106.109 E6.90898
G1 X114.319 Y106.282 E6.92038
G1 X114.319 Y107.026 E6.95517
G1 X114.549 Y106.796 E6.97034
G1 X114.606 Y107.483 E7.00257
G1 X110.635 Y111.455 E7.26518
G1 X111.266 Y111.567 E7.29519
G1 X114.663 Y108.170 E7.51981
G1 X114.720 Y108.857 E7.55204
G1 X111.898 Y111.680 E7.73868
G1 X112.354 Y111.968 E7.76390
G1 X114.777 Y109.544 E7.92415
G1 X114.835 Y110.231 E7.95639
G1 X112.806 Y112.260 E8.09051
G1 X113.130 Y112.468 E8.10850
G1 X113.215 Y112.595 E8.11565
G1 X114.892 Y110.918 E8.22650
G1 X114.949 Y111.605 E8.25873
G1 X113.516 Y113.038 E8.35346
G1 X113.817 Y113.481 E8.37852
G1 X115.006 Y112.292 E8.45714
G1 X115.063 Y112.980 E8.48937
G1 X114.010 Y114.033 E8.55903
G1 X114.136 Y114.651 E8.58853
G1 X115.120 Y113.667 E8.65364
G1 X115.177 Y114.354 E8.68587
G1 X114.148 Y115.383 E8.75393
G1 X113.962 Y116.313 E8.79830
G1 X115.235 Y115.041 E8.88246
G1 X115.292 Y115.728 E8.91470
G1 X113.821 Y117.198 E9.01195
G1 X114.400 Y117.364 E9.04010
G1 X116.178 Y115.586 E9.15766
G1 X117.465 Y115.043 E9.22299
G1 X114.685 Y117.822 E9.40681
G1 X114.388 Y118.864 E9.45746
G1 X118.753 Y114.499 E9.74608
G1 X119.347 Y114.249 E9.77623
G1 X119.482 Y114.514 E9.79015
G1 X114.324 Y119.673 E10.13127
G1 X114.903 Y119.838 E10.15942
G1 X119.734 Y115.006 E10.47891
G1 X119.986 Y115.499 E10.50477
G1 X115.481 Y120.003 E10.80264
G1 X116.060 Y120.169 E10.83079
G1 X120.238 Y115.991 E11.10704
G1 X120.490 Y116.483 E11.13290
G1 X116.639 Y120.334 E11.38752
G1 X117.218 Y120.499 E11.41567
G1 X120.742 Y116.976 E11.64866
G1 X120.993 Y117.468 E11.67452
G1 X117.797 Y120.665 E11.88589
G1 X118.376 Y120.830 E11.91404
G1 X121.669 Y117.537 E12.13181
G1 X124.044 Y115.869 E12.26751
G1 X124.057 Y115.893 E12.26877
G1 X118.955 Y120.995 E12.60619
G1 X119.533 Y121.161 E12.63434
G1 X124.324 Y116.370 E12.95112
G1 X124.591 Y116.848 E12.97670
G1 X120.112 Y121.326 E13.27283
G1 X120.691 Y121.491 E13.30098
G1 X124.857 Y117.325 E13.57647
G1 X125.124 Y117.803 E13.60204
G1 X121.270 Y121.657 E13.85688
G1 X121.849 Y121.822 E13.88503
G1 X125.391 Y118.280 E14.11923
G1 X125.657 Y118.758 E14.14480
G1 X122.428 Y121.987 E14.35835
G1 X123.007 Y122.153 E14.38650
G1 X126.846 Y118.313 E14.64038
G1 X128.365 Y117.416 E14.72289
G1 X128.354 Y117.549 E14.72917
G1 X123.586 Y122.318 E15.04449
G1 X124.164 Y122.483 E15.07264
G1 X128.286 Y118.362 E15.34516
G1 X128.217 Y119.175 E15.38329
G1 X124.743 Y122.649 E15.61300
G1 X125.322 Y122.814 E15.64115
G1 X128.149 Y119.988 E15.82805
G1 X128.080 Y120.800 E15.86619
G1 X125.901 Y122.979 E16.01028
G1 X126.480 Y123.145 E16.03843
G1 X128.012 Y121.613 E16.13971
G1 X127.943 Y122.426 E16.17785
G1 X127.833 Y122.536 E16.18513
G1 F6240
G1 X127.943 Y122.426 E16.09983
G1 F6240
G1 X128.012 Y121.613 E15.65283
G1 F6240
G1 X126.480 Y123.145 E14.46561
G1 F6240
G1 X125.901 Y122.979 E14.13566
G1 F6240
G1 X128.080 Y120.800 E12.44668
G1 F6240
G1 X128.149 Y119.988 E11.99968
G1 F6240
G1 X125.322 Y122.814 E9.80892
G1 F6240
G1 X125.175 Y122.772 E9.72513
G1 E9.38513 F3600.00000
G92 E0
G1 X127.423 Y108.217 F7800.000
G1 E6.80000 F3600.00000
G1 F1800
G1 X127.532 Y108.107 E6.80726
G1 X127.810 Y107.324 E6.84612
G1 X127.689 Y107.156 E6.85584
G1 X127.158 Y107.687 E6.89095
G1 X126.893 Y107.156 E6.91867
G1 X127.356 Y106.694 E6.94925
G1 X127.213 Y106.495 E6.96069
G1 X126.874 Y106.379 E6.97740
G1 X126.628 Y106.625 E6.99367
G1 X126.526 Y106.421 E7.00436
G1 X125.521 Y106.938 E7.05721
G1 X126.282 Y106.177 E7.10753
G1 X125.690 Y105.974 E7.13681
G1 X123.884 Y107.779 E7.25619
G1 X123.777 Y107.834 E7.26184
G1 X123.501 Y107.367 E7.28721
G1 X125.097 Y105.771 E7.39276
G1 X124.505 Y105.568 E7.42204
G1 X123.206 Y106.867 E7.50793
G1 X122.911 Y106.367 E7.53508
G1 X123.912 Y105.365 E7.60132
G1 X123.320 Y105.163 E7.63060
G1 X122.616 Y105.867 E7.67717
G1 X122.320 Y105.367 E7.70432
G1 X122.727 Y104.960 E7.73124
G1 X122.135 Y104.757 E7.76052
G1 X122.025 Y104.867 E7.76777
G1 X121.415 Y105.139 F7800.000
G1 F1800
G1 X121.883 Y104.671 E7.79873
G1 X121.329 Y104.481 E7.82613
G1 X119.557 Y106.253 E7.94332
G1 X118.900 Y106.647 E7.97911
G1 X118.567 Y106.499 E7.99616
G1 X120.775 Y104.291 E8.14214
G1 X120.220 Y104.101 E8.16954
G1 X118.052 Y106.270 E8.31293
G1 X117.536 Y106.041 E8.33930
G1 X119.666 Y103.912 E8.48011
G1 X119.111 Y103.722 E8.50751
G1 X117.021 Y105.812 E8.64573
G1 X116.506 Y105.583 E8.67210
G1 X118.557 Y103.532 E8.80774
G1 X118.003 Y103.342 E8.83514
G1 X115.991 Y105.354 E8.96819
G1 X115.475 Y105.125 E8.99456
G1 X117.448 Y103.152 E9.12503
G1 X117.285 Y103.097 E9.13307
G1 X116.459 Y103.398 E9.17421
G1 X114.960 Y104.897 E9.27332
G1 X114.445 Y104.668 E9.29969
G1 X115.288 Y103.824 E9.35548
G1 X114.118 Y104.250 E9.41373
G1 X113.733 Y104.635 E9.43919
G1 X113.677 Y104.481 E9.44688
G1 X114.008 Y104.360 E9.46339
G1 F6240
G1 X113.677 Y104.481 E9.26992
G1 F6240
G1 X113.733 Y104.635 E9.17975
G1 F6240
G1 X114.118 Y104.250 E8.88128
G1 F6240
G1 X115.288 Y103.824 E8.19859
G1 F6240
G1 X114.445 Y104.668 E7.54461
G1 F6240
G1 X114.960 Y104.897 E7.23557
G1 F6240
G1 X116.459 Y103.398 E6.07381
G1 F6240
G1 X117.285 Y103.097 E5.59163
G1 F6240
G1 X117.448 Y103.152 E5.49730
G1 F6240
G1 X115.475 Y105.125 E3.96800
G1 F6240
G1 X115.991 Y105.354 E3.65896
G1 F6240
G1 X116.836 Y104.509 E3.00339
G1 E2.66339 F3600.00000
G92 E0
G1 X112.529 Y120.080 F7800.000
G1 E6.80000 F3600.00000
G1 F1800
G1 X107.661 Y118.690 E6.96717
G1 X108.128 Y117.053 E7.02338
G1 X112.997 Y118.443 E7.19055
G1 X112.545 Y120.023 E7.24478
G1 X112.584 Y120.477 F7800.000
G1 F6240
G1 X107.661 Y118.690 E4.46970
G1 F6240
G1 X107.754 Y118.362 E4.28279
G1 F6240
G1 X108.128 Y117.053 E3.53652
G1 F6240
G1 X112.956 Y118.432 E0.78478
G1 E0.44478 F3600.00000
G92 E0
G1 X111.410 Y116.957 F7800.000
G1 E6.80000 F3600.00000
G1 F1800
G1 X110.604 Y117.099 E6.82703
G1 X109.826 Y116.931 E6.85329
G1 X109.136 Y116.454 E6.88099
G1 X108.701 Y115.781 E6.90746
G1 X108.551 Y114.967 E6.93478
G1 X108.709 Y114.201 E6.96061
G1 X109.148 Y113.533 E6.98699
G1 X109.833 Y113.066 E7.01437
G1 X110.615 Y112.901 E7.04075
G1 X111.409 Y113.043 E7.06739
G1 X112.121 Y113.502 E7.09535
G1 X112.585 Y114.186 E7.12265
G1 X112.749 Y114.993 E7.14983
G1 X112.585 Y115.815 E7.17753
G1 X112.111 Y116.508 E7.20523
G1 X111.461 Y116.924 E7.23073
G1 X111.350 Y117.352 F7800.000
G1 F6240
G1 X110.604 Y117.099 E6.75159
G1 F6240
G1 X109.826 Y116.931 E6.31562
G1 F6240
G1 X109.136 Y116.454 E5.85575
G1 F6240
G1 X108.701 Y115.781 E5.41638
G1 F6240
G1 X108.551 Y114.967 E4.96292
G1 F6240
G1 X108.709 Y114.201 E4.53419
G1 F6240
G1 X109.148 Y113.533 E4.09630
G1 F6240
G1 X109.833 Y113.066 E3.64168
G1 F6240
G1 X110.615 Y112.901 E3.20380
G1 F6240
G1 X111.409 Y113.043 E2.76169
G1 F6240
G1 X112.121 Y113.502 E2.29752
G1 F6240
G1 X112.585 Y114.186 E1.84435
G1 F6240
G1 X112.749 Y114.993 E1.39321
G1 F6240
G1 X112.585 Y115.815 E0.93336
G1 F6240
G1 X112.417 Y116.060 E0.77073
G1 E0.43073 F3600.00000
G92 E0
G1 X114.201 Y117.774 F7800.000
G1 E6.80000 F3600.00000
G1 F1800
G1 X112.637 Y117.327 E6.86991
G1 X112.803 Y117.221 E6.87838
G1 X113.501 Y116.201 E6.93150
G1 X113.743 Y114.991 E6.98458
G1 X113.501 Y113.801 E7.03682
G1 X112.816 Y112.791 E7.08928
G1 X111.773 Y112.118 E7.14264
G1 X110.599 Y111.909 E7.19388
G1 X109.444 Y112.153 E7.24466
G1 X108.440 Y112.837 E7.29690
G1 X107.793 Y113.822 E7.34756
G1 X107.559 Y114.957 E7.39739
G1 X107.738 Y115.928 E7.43986
G1 X107.459 Y115.848 E7.45233
G1 X106.844 Y118.003 E7.54868
G1 X106.707 Y117.965 E7.55477
G1 X104.086 Y107.388 E8.02327
G1 X107.491 Y106.148 E8.17910
G1 X108.350 Y108.490 E8.28636
G1 X109.125 Y109.141 E8.32985
G1 X110.000 Y109.217 E8.36765
G1 X113.043 Y108.118 E8.50673
G1 X113.857 Y107.303 E8.55626
G1 X113.857 Y106.282 E8.60018
G1 X113.069 Y104.117 E8.69924
G1 X117.225 Y102.603 E8.88943
G1 X127.481 Y106.114 E9.35550
G1 X128.334 Y107.297 E9.41818
G1 X127.558 Y109.482 E9.51787
G1 X126.352 Y107.065 E9.63399
G1 X123.634 Y108.462 E9.76538
G1 X121.859 Y105.454 E9.91558
G1 X118.991 Y107.174 E10.05935
G1 X114.888 Y105.351 E10.25237
G1 X115.712 Y115.253 E10.67957
G1 X119.533 Y113.641 E10.85791
G1 X121.332 Y117.158 E11.02776
G1 X124.161 Y115.171 E11.17638
G1 X125.904 Y118.292 E11.33004
G1 X128.910 Y116.516 E11.48016
G1 X128.381 Y122.790 E11.75086
G1 X126.826 Y123.711 E11.82856
G1 X113.585 Y119.929 E12.42062
G1 X114.184 Y117.832 E12.51440
G1 X113.562 Y118.129 F7800.000
G1 F1800
G1 X111.207 Y117.457 E12.61969
G1 X111.580 Y117.391 E12.63596
G1 X112.436 Y116.842 E12.67968
G1 X113.015 Y115.997 E12.72375
G1 X113.216 Y114.992 E12.76780
G1 X113.015 Y114.005 E12.81109
G1 X112.447 Y113.168 E12.85458
G1 X111.580 Y112.609 E12.89894
G1 X110.608 Y112.436 E12.94140
G1 X109.651 Y112.638 E12.98346
G1 X108.816 Y113.207 E13.02690
G1 X108.279 Y114.023 E13.06890
G1 X108.085 Y114.962 E13.11014
G1 X108.268 Y115.953 E13.15343
G1 X108.794 Y116.768 E13.19514
G1 X107.814 Y116.488 E13.23895
G1 X107.199 Y118.643 E13.33531
G1 X106.278 Y118.379 E13.37650
G1 X103.472 Y107.061 E13.87785
G1 X107.799 Y105.486 E14.07585
G1 X108.788 Y108.183 E14.19937
G1 X109.332 Y108.640 E14.22992
