; generated by Slic3r 1.3.0 on 2019-07-10 at 20:11:59

; Print Config Notes: 
; ; On ender-3 we can go a tiny but faster, but not much
; 
; Printer Config Notes: 
; Don’t remove the following keywords! These keywords are used in the “compatible printer” condition of the print and filament profiles to link the particular print and filament profiles to this printer profile.
; PRINTER_VENDOR_CREALITY
; PRINTER_MODEL_ENDER3
; PRINTER_HAS_BOWDEN
; PRINTER_NOT_VOLCANO
; 
; external perimeters extrusion width = 0.44mm (2.08mm^3/s)
; perimeters extrusion width = 0.56mm (6.73mm^3/s)
; infill extrusion width = 0.50mm (6.71mm^3/s)
; solid infill extrusion width = 0.56mm (7.57mm^3/s)
; top infill extrusion width = 0.56mm (3.78mm^3/s)

M107
; Creality Ender-3 Standard

G21 ; metric values
G90 ; absolute positioning
M82; set extruder to absolute mode
M220 S100; Set to 100% speed

; Ender 3 specific 
M201 X1000 Y1000 E5000 Z100 ; Acceleration http://marlinfw.org/docs/gcode/M201.html
M203 X500 Y500 Z5 E25 ; sets maximum feedrates, mm/sec
M204 S500 T500 ; sets acceleration (S) and retract acceleration (T)
M205 J0.1 ; Junction deviation http://marlinfw.org/docs/gcode/M205.html
M205 S0 T0 ; sets the minimum extruding and travel feed rate, mm/sec

G4 S2        ; Dwell for 2 seconds then home the bed
M117 Homing ;Put printing message on LCD screen
G28 ; Home

; Set working temperatures
M117 Heating ; Put printing message on LCD screen
M104 S205 ; set extruder temp
M140 S40 ; set bed temp

M190 S40 ; wait for bed temp
M109 S205 ; wait for extruder temp


;;;;;;;;;;;;;;;;;;;;;;;;;;;;;;;;;;;;
; Prepare nozzle
G1 X5 Y5 Z10 ; 
G92 E0 ; Set extrusion distance to 0
G92 E0 ; Set extrusion distance to 0
G1 F1800 E3;
G92 E0 ; Set extrusion distance to 0
G90;


; You may want to adjust the X and Y here so the nozzle is really above the bed!
G1 X5.0 Y5.0 F7200 ; Move to a position in the left front of the bed
G1 Z0.6; Move nozzle above 0.6 mm of the bed

G91 ; Use relative mode
; Make some jerky zick-zack move at the beginning
; This is supposed to get rid of residue at the nozzle
G1 X1.0 Y5.0 Z-0.1 E-1.0 F7200 ; X6 Y10 Z0.1, retract a tiny bit / 120mm/s
G1 X1.0 Y-5.0 Z0.1 E2.0 F7200 ; X7 Y5 Z0.2 extrude a tiny bit
G1 X2.0 Y5.0 Z-0.1 F7200 ; X9 Y10 Z0.1
G1 X2.0 Y-5.0 Z0.1 F7200 ; X11 Y5 Z0.2
G1 X2.0 Y5.0 F7200 ; X13 Y10
G1 X2.0 Y-5.0 F7200 ; X15 Y5

; now print a line of filament to prepare extrusion
G1 Y50 E20 F1000 ; prints a line in the front
G1 Y50 E40 F1000 ; prints a line in the front

; Done with the dancing :)
G92 E0 ; Set extrusion distance to 0
G90 ; switch back to absolute mode
G1 Z10; Move nozzle above 10 mm of the bed
;;;;;;;;;;;;;;;;;;;;;;;;;;;;;;;;;;;;

; Start of actual GCode for the print
M117 Flexi-Rex-improved ; display printed file on LCD

;END gcode for filament
M900 K0.67
G21 ; set units to millimeters
G90 ; use absolute coordinates
M82 ; use absolute distances for extrusion
G92 E0
;BEFORE_LAYER_CHANGE
;Layer 0
;0.2mm
;Printing layer 0 at 0.2mm

; M220 S50

G1 Z0.200 F7800.000
G1 E-6.80000 F3600.00000
G92 E0
G1 X78.334 Y81.070 F7800.000
G1 E6.80000 F3600.00000
M201 X1250 Y1250
M204 P1250 T1250
G1 F1800
G1 X79.772 Y80.618 E6.86482
G1 X110.726 Y80.622 E8.19567
G1 X112.157 Y81.069 E8.26015
G1 X112.330 Y81.188 E8.26918
G1 X113.215 Y82.276 E8.32949
G1 X122.302 Y103.726 E9.33106
G1 X122.496 Y104.552 E9.36754
G1 X122.837 Y110.042 E9.60402
G1 X122.833 Y110.409 E9.61982
G1 X122.362 Y115.990 E9.86062
G1 X121.858 Y117.301 E9.92102
G1 X121.137 Y117.944 E9.96256
G1 X119.304 Y119.030 E10.05419
G1 X117.329 Y119.285 E10.13978
G1 X102.966 Y115.183 E10.78203
G1 X101.718 Y114.367 E10.84614
G1 X78.067 Y85.779 E12.44142
G1 X77.677 Y85.128 E12.47405
G1 X77.346 Y84.320 E12.51157
G1 X77.354 Y82.394 E12.59441
G1 X77.451 Y82.162 E12.60519
G1 X78.296 Y81.116 E12.66301
G1 F6240
G1 X79.772 Y80.618 E11.80919
G1 F6240
G1 X90.001 Y80.618 E6.20301
G1 E5.86301 F3600.00000
G92 E0
G1 X103.716 Y105.538 F7800.000
G1 E6.80000 F3600.00000
G1 F1800
G1 X103.825 Y105.428 E6.80800
G1 X104.523 Y105.174 E6.84633
G1 X104.637 Y105.483 E6.86331
G1 X103.888 Y106.232 E6.91797
G1 X104.060 Y106.926 E6.95486
G1 X104.869 Y106.117 E7.01390
G1 X104.961 Y106.368 E7.02771
G1 X105.317 Y106.534 E7.04801
G1 X104.232 Y107.620 E7.12723
G1 X104.404 Y108.314 E7.16412
G1 X105.908 Y106.809 E7.27390
G1 X106.499 Y107.085 E7.30752
G1 X106.389 Y107.194 E7.31553
G1 X106.853 Y106.981 F7800.000
G1 F1800
G1 X106.714 Y107.120 E7.32571
G1 X106.977 Y107.060 E7.33968
G1 X107.550 Y107.161 E7.36969
G1 X108.227 Y106.484 E7.41910
G1 X109.242 Y106.117 E7.47474
G1 X109.307 Y106.052 E7.47948
G1 X109.324 Y106.264 E7.49048
G1 X108.247 Y107.341 E7.56906
G1 X108.789 Y107.677 E7.60195
G1 X109.392 Y107.075 E7.64591
G1 X109.459 Y107.885 E7.68785
G1 X109.349 Y107.994 E7.69587
G1 X109.551 Y108.436 F7800.000
G1 F1800
G1 X109.656 Y108.829 E7.70033
G1 F1800
G1 X109.760 Y109.475 E7.70424
G1 X109.818 Y110.152 F7800.000
G1 F1800
G1 X109.802 Y110.566 E7.70843
G1 F1800
G1 X109.785 Y110.980 E7.71597
G1 F1800
G1 X109.764 Y111.093 E7.71864
G1 X109.868 Y111.142 E7.72133
G1 F1800
G1 X109.973 Y111.191 E7.72341
G1 X110.119 Y111.183 E7.72604
G1 X110.575 Y111.115 F7800.000
G1 F1800
G1 X110.685 Y111.005 E7.73276
G1 X111.960 Y110.467 E7.79274
G1 X110.726 Y111.701 E7.86832
G1 X110.730 Y111.764 E7.87107
G1 X110.662 Y111.765 E7.87403
G1 X110.287 Y112.140 E7.89699
G1 X110.115 Y112.742 E7.92412
G1 X110.354 Y112.810 E7.93488
G1 X112.777 Y110.388 E8.08335
G1 X113.026 Y110.875 E8.10709
G1 X110.927 Y112.974 E8.23570
G1 X111.501 Y113.137 E8.26154
G1 X113.275 Y111.363 E8.37030
G1 X113.525 Y111.851 E8.39404
G1 X112.074 Y113.301 E8.48295
G1 X112.647 Y113.465 E8.50880
G1 X113.774 Y112.338 E8.57786
G1 X113.953 Y112.688 E8.59488
G1 X114.653 Y112.197 E8.63193
G1 X113.221 Y113.629 E8.71969
G1 X113.794 Y113.792 E8.74553
G1 X116.003 Y111.583 E8.88094
G1 X116.267 Y112.056 E8.90441
G1 X114.367 Y113.956 E9.02086
G1 X114.941 Y114.120 E9.04670
G1 X116.532 Y112.529 E9.14420
G1 X116.796 Y113.002 E9.16768
G1 X115.514 Y114.284 E9.24622
G1 X116.087 Y114.447 E9.27206
G1 X117.439 Y113.096 E9.35489
G1 X118.306 Y112.584 E9.39853
G1 X118.271 Y113.001 E9.41669
G1 X116.661 Y114.611 E9.51536
G1 X117.234 Y114.775 E9.54120
G1 X118.203 Y113.806 E9.60058
G1 X118.135 Y114.611 E9.63559
G1 X118.025 Y114.721 E9.64233
G1 F6240
G1 X118.135 Y114.611 E9.55703
G1 F6240
G1 X118.203 Y113.806 E9.11431
G1 F6240
G1 X117.234 Y114.775 E8.36340
G1 F6240
G1 X116.661 Y114.611 E8.03661
G1 F6240
G1 X118.271 Y113.001 E6.78873
G1 F6240
G1 X118.306 Y112.584 E6.55908
G1 F6240
G1 X117.439 Y113.096 E6.00721
G1 F6240
G1 X116.087 Y114.447 E4.95963
G1 F6240
G1 X115.514 Y114.284 E4.63283
G1 F6240
G1 X116.796 Y113.002 E3.63952
G1 F6240
G1 X116.532 Y112.529 E3.34261
G1 F6240
G1 X116.325 Y112.736 E3.18233
G1 E2.84233 F3600.00000
G92 E0
G1 X113.331 Y103.374 F7800.000
G1 E6.80000 F3600.00000
G1 F1800
G1 X113.441 Y103.264 E6.80694
G1 X112.876 Y103.071 E6.83361
G1 X112.237 Y103.709 E6.87390
G1 X111.712 Y103.475 E6.89956
G1 X112.310 Y102.877 E6.93733
G1 X111.745 Y102.683 E6.96401
G1 X111.186 Y103.242 E6.99926
G1 X110.661 Y103.008 E7.02493
G1 X110.771 Y102.899 E7.03186
G1 F6240
G1 X110.661 Y103.008 E6.94674
G1 F6240
G1 X111.186 Y103.242 E6.63154
G1 F6240
G1 X111.745 Y102.683 E6.19859
G1 F6240
G1 X112.310 Y102.877 E5.87102
G1 F6240
G1 X111.712 Y103.475 E5.40716
G1 F6240
G1 X112.237 Y103.709 E5.09196
G1 F6240
G1 X112.876 Y103.071 E4.59720
G1 F6240
G1 X113.441 Y103.264 E4.26963
G1 F6240
G1 X113.331 Y103.374 E4.18442
G1 E0.23186 F3600.00000
G92 E0
G1 X108.397 Y113.466 F7800.000
G1 E6.80000 F3600.00000
G1 F1800
G1 X105.028 Y112.504 E6.91569
G1 X105.375 Y111.289 E6.95740
G1 X108.744 Y112.251 E7.07309
G1 X108.413 Y113.409 E7.11283
G1 X108.449 Y113.863 F7800.000
G1 F6240
G1 X105.028 Y112.504 E5.19221
G1 F6240
G1 X105.121 Y112.176 E5.00530
G1 F6240
G1 X105.375 Y111.289 E4.49968
G1 F6240
G1 X108.744 Y112.251 E2.57935
G1 F6240
G1 X108.413 Y113.409 E1.91967
G1 E0.31283 F3600.00000
G92 E0
G1 X107.731 Y111.332 F7800.000
G1 E6.80000 F3600.00000
G1 F1800
G1 X107.191 Y111.471 E6.81844
G1 X106.617 Y111.393 E6.83756
G1 X106.141 Y111.120 E6.85566
G1 X105.779 Y110.655 E6.87512
G1 X105.630 Y110.108 E6.89383
G1 X105.693 Y109.559 E6.91209
G1 X106.019 Y108.997 E6.93353
G1 X106.484 Y108.660 E6.95251
G1 X107.070 Y108.526 E6.97236
G1 X107.631 Y108.625 E6.99116
G1 X108.095 Y108.912 E7.00917
G1 X108.437 Y109.378 E7.02826
G1 X108.573 Y109.944 E7.04746
G1 X108.478 Y110.522 E7.06682
G1 X108.196 Y110.985 E7.08473
G1 X107.780 Y111.296 E7.10189
G1 X107.699 Y111.731 F7800.000
G1 F6240
G1 X107.191 Y111.471 E6.76513
G1 F6240
G1 X106.617 Y111.393 E6.44775
G1 F6240
G1 X106.141 Y111.120 E6.14725
G1 F6240
G1 X105.779 Y110.655 E5.82431
G1 F6240
G1 X105.630 Y110.108 E5.51369
G1 F6240
G1 X105.693 Y109.559 E5.21054
G1 F6240
G1 X106.019 Y108.997 E4.85461
G1 F6240
G1 X106.484 Y108.660 E4.53958
G1 F6240
G1 X107.070 Y108.526 E4.21008
G1 F6240
G1 X107.631 Y108.625 E3.89810
G1 F6240
G1 X108.095 Y108.912 E3.59905
G1 F6240
G1 X108.437 Y109.378 E3.28222
G1 F6240
G1 X108.573 Y109.944 E2.96349
G1 F6240
G1 X108.478 Y110.522 E2.64203
G1 F6240
G1 X108.196 Y110.985 E2.34481
G1 F6240
G1 X107.780 Y111.296 E2.05992
G1 E0.30189 F3600.00000
G92 E0
G1 X109.948 Y111.582 F7800.000
G1 E6.80000 F3600.00000
G1 F1800
G1 X109.118 Y111.345 E6.83712
G1 X109.409 Y110.867 E6.86117
G1 X109.567 Y109.907 E6.90303
G1 X109.338 Y108.960 E6.94492
G1 X108.768 Y108.184 E6.98630
G1 X107.985 Y107.698 E7.02593
G1 X107.046 Y107.532 E7.06695
G1 X106.074 Y107.755 E7.10980
G1 X105.280 Y108.329 E7.15193
G1 X104.748 Y109.246 E7.19751
G1 X104.641 Y110.184 E7.23808
G1 X104.659 Y110.249 E7.24099
G1 X104.530 Y110.698 E7.26106
G1 X103.157 Y105.156 E7.50655
G1 X104.777 Y104.566 E7.58068
G1 X105.318 Y106.044 E7.64836
G1 X106.498 Y106.594 E7.70433
G1 X108.903 Y105.725 E7.81427
G1 X109.605 Y105.022 E7.85697
G1 X109.605 Y104.129 E7.89538
G1 X109.180 Y102.963 E7.94876
G1 X111.487 Y102.122 E8.05434
G1 X114.607 Y103.190 E8.19610
G1 X112.635 Y104.372 E8.29493
G1 X109.511 Y102.984 E8.44193
G1 X110.153 Y110.700 E8.77483
G1 X112.852 Y109.561 E8.90078
G1 X114.088 Y111.978 E9.01748
G1 X115.986 Y110.645 E9.11721
G1 X117.133 Y112.699 E9.21834
G1 X118.850 Y111.684 E9.30411
G1 X118.573 Y114.975 E9.44611
G1 X117.833 Y115.413 E9.48308
G1 X109.531 Y113.042 E9.85431
G1 X109.931 Y111.640 E9.91702
G1 F6240
G1 X109.118 Y111.345 E9.44272
G1 F6240
G1 X109.409 Y110.867 E9.13612
G1 F6240
G1 X109.567 Y109.907 E8.60255
G1 F6240
G1 X109.338 Y108.960 E8.06859
G1 F6240
G1 X108.768 Y108.184 E7.54103
G1 F6240
G1 X107.985 Y107.698 E7.03586
G1 F6240
G1 X107.046 Y107.532 E6.51303
G1 F6240
G1 X106.074 Y107.755 E5.96677
G1 F6240
G1 X105.280 Y108.329 E5.42964
G1 F6240
G1 X104.748 Y109.246 E4.84871
G1 F6240
G1 X104.641 Y110.184 E4.33148
G1 F6240
G1 X104.659 Y110.249 E4.29447
G1 F6240
G1 X104.530 Y110.698 E4.03853
G1 F6240
G1 X104.275 Y109.668 E3.45701
G1 E3.11702 F3600.00000
G92 E0
G1 X115.895 Y105.160 F7800.000
G1 E6.80000 F3600.00000
G1 F1800
G1 X114.765 Y103.244 E6.89564
G1 X117.680 Y104.242 E7.02813
G1 X115.949 Y105.133 E7.11183
G1 F6240
G1 X114.765 Y103.244 E5.89033
G1 F6240
G1 X117.680 Y104.242 E4.20146
G1 F6240
G1 X115.949 Y105.133 E3.13446
G1 E0.31183 F3600.00000
G92 E0
G1 X117.755 Y104.268 F7800.000
G1 E6.80000 F3600.00000
G1 F1800
G1 X118.093 Y104.384 E6.81534
G1 X118.481 Y104.923 E6.84391
G1 X118.315 Y105.391 E6.86526
G1 X117.782 Y104.322 E6.91662
G1 X117.501 Y104.916 F7800.000
G1 F1800
G1 X115.698 Y105.843 E7.00376
G1 X114.519 Y103.846 E7.10348
G1 X112.671 Y104.954 E7.19613
G1 X110.098 Y103.811 E7.31716
G1 X110.609 Y109.947 E7.58187
G1 X113.093 Y108.898 E7.69781
G1 X114.277 Y111.213 E7.80960
G1 X116.158 Y109.893 E7.90840
G1 X117.326 Y111.984 E8.01139
G1 X119.450 Y110.729 E8.11745
G1 X119.066 Y115.284 E8.31398
G1 X117.905 Y115.972 E8.37198
G1 X108.892 Y113.397 E8.77502
G1 X109.309 Y111.937 E8.84030
G1 X108.134 Y111.602 E8.89281
G1 X108.540 Y111.299 E8.91460
G1 X108.915 Y110.684 E8.94555
G1 X109.039 Y109.926 E8.97858
G1 X108.860 Y109.182 E9.01150
G1 X108.411 Y108.570 E9.04411
G1 X107.797 Y108.190 E9.07516
G1 X107.059 Y108.060 E9.10739
G1 X106.292 Y108.235 E9.14122
G1 X105.672 Y108.684 E9.17411
G1 X105.250 Y109.412 E9.21031
G1 X105.166 Y110.144 E9.24197
G1 X105.346 Y110.806 E9.27147
G1 X105.061 Y110.724 E9.28425
G1 X104.644 Y112.184 E9.34953
G1 X104.345 Y112.099 E9.36289
G1 X102.543 Y104.829 E9.68490
G1 X105.085 Y103.904 E9.80121
G1 X105.730 Y105.666 E9.88190
G1 X106.523 Y106.035 E9.91950
G1 X108.618 Y105.278 E10.01531
G1 X109.088 Y104.808 E10.04385
G1 X109.088 Y104.220 E10.06913
G1 X108.517 Y102.654 E10.14082
G1 X111.482 Y101.574 E10.27648
G1 X118.416 Y103.948 E10.59159
G1 X119.059 Y104.840 E10.63889
G1 X118.396 Y106.710 E10.72420
G1 X117.527 Y104.970 E10.80781
G1 X117.298 Y105.534 F7800.000
G1 F1800
G1 X115.524 Y106.447 E10.87369
G1 X114.360 Y104.474 E10.94931
G1 X112.702 Y105.468 E11.01310
G1 X110.618 Y104.542 E11.08841
G1 X111.012 Y109.280 E11.24540
G1 X113.307 Y108.312 E11.32764
G1 X114.445 Y110.537 E11.41015
G1 X116.310 Y109.227 E11.48540
G1 X117.497 Y111.352 E11.56575
G1 X119.431 Y110.209 E11.63993
G1 X119.934 Y110.430 E11.65806
G1 X119.502 Y115.557 E11.82794
G1 X117.969 Y116.465 E11.88676
G1 X103.965 Y112.465 E12.36762
G1 X102.000 Y104.540 E12.63721
G1 X105.357 Y103.318 E12.75516
G1 X106.094 Y105.331 E12.82595
G1 X106.545 Y105.541 E12.84236
G1 X108.367 Y104.882 E12.90634
G1 X108.631 Y104.619 E12.91864
G1 X108.631 Y104.301 E12.92914
G1 X107.931 Y102.380 E12.99662
G1 X111.477 Y101.089 E13.12122
G1 X118.701 Y103.562 E13.37334
G1 X119.570 Y104.767 E13.42238
G1 X118.639 Y107.391 E13.51430
G1 X118.140 Y107.221 E13.53170
G1 X117.325 Y105.588 E13.59197
G1 X117.098 Y105.188 F7800.000
G1 F6240
G1 X115.524 Y106.447 E12.49820
G1 F6240
G1 X114.360 Y104.474 E11.24305
G1 F6240
G1 X112.702 Y105.468 E10.18408
G1 F6240
G1 X110.618 Y104.542 E8.93400
G1 F6240
G1 X110.891 Y107.819 E7.13197
G1 E6.79197 F3600.00000
G92 E0
G1 X109.013 Y99.082 F7800.000
G1 E6.80000 F3600.00000
G1 F1800
G1 X108.240 Y99.407 E6.81999
G1 F6240
G1 X109.013 Y99.082 E6.36011
G1 E0.01999 F3600.00000
G92 E0
G1 X107.543 Y100.761 F7800.000
G1 E6.80000 F3600.00000
G1 F1800
G1 X107.120 Y100.999 E6.80191
G1 X106.160 Y101.520 F7800.000
G1 F1800
G1 X106.264 Y101.805 E6.81173
G1 F1800
G1 X106.717 Y103.049 E6.84683
G1 F6240
G1 X106.264 Y101.805 E6.12098
G1 E0.04683 F3600.00000
G92 E0
G1 X109.579 Y97.544 F7800.000
G1 E6.80000 F3600.00000
G1 F1800
G1 X109.851 Y97.469 E6.80157
G1 X110.064 Y97.314 E6.80304
G1 F6240
G1 X109.851 Y97.469 E6.65876
G1 F6240
G1 X109.579 Y97.544 E6.50394
G1 E0.00304 F3600.00000
G92 E0
G1 X103.722 Y101.472 F7800.000
G1 E6.80000 F3600.00000
G1 F1800
G1 X102.283 Y101.990 E6.86575
G1 X102.232 Y101.814 E6.87364
G1 X103.556 Y101.188 E6.93664
G1 X103.692 Y101.420 E6.94820
G1 X104.481 Y101.748 F7800.000
G1 F1800
G1 X101.942 Y102.663 E7.06427
G1 X101.611 Y101.536 E7.11478
G1 X103.764 Y100.517 E7.21717
G1 X104.451 Y101.696 E7.27582
G1 F6240
G1 X101.942 Y102.663 E5.80181
G1 F6240
G1 X101.611 Y101.536 E5.15789
G1 F6240
G1 X103.764 Y100.517 E3.85265
G1 F6240
G1 X104.451 Y101.696 E3.10508
G1 E0.47582 F3600.00000
G92 E0
G1 X108.173 Y99.850 F7800.000
G1 E6.80000 F3600.00000
G1 F1800
G1 X108.166 Y99.795 E6.80239
G1 X107.807 Y99.176 E6.83313
G1 X109.092 Y98.569 E6.89424
G1 X109.411 Y99.395 E6.93232
G1 X108.230 Y99.829 E6.98646
G1 X107.746 Y100.558 F7800.000
G1 F1800
G1 X107.667 Y99.965 E7.01216
G1 X107.078 Y98.950 E7.06266
G1 X109.373 Y97.863 E7.17186
G1 X110.083 Y99.698 E7.25646
G1 X107.803 Y100.537 E7.36094
G1 F6240
G1 X107.667 Y99.965 E7.03888
G1 F6240
G1 X107.078 Y98.950 E6.39517
G1 F6240
G1 X109.373 Y97.863 E5.00315
G1 F6240
G1 X110.083 Y99.698 E3.92474
G1 F6240
G1 X107.803 Y100.537 E2.59286
G1 E0.56094 F3600.00000
G92 E0
G1 X111.794 Y96.601 F7800.000
G1 E6.80000 F3600.00000
G1 F1800
G1 X112.653 Y95.687 E6.85394
G1 X113.062 Y96.236 E6.88336
G1 X111.852 Y96.585 E6.93753
G1 F6240
G1 X112.653 Y95.687 E6.27796
G1 F6240
G1 X113.062 Y96.236 E5.90297
G1 F6240
G1 X111.852 Y96.585 E5.21245
G1 E0.13753 F3600.00000
G92 E0
G1 X110.470 Y97.256 F7800.000
G1 E6.80000 F3600.00000
